inst/assets/svg/wi-snowflake-cold.svg

<?xml version="1.0" encoding="UTF-8"?>
<svg xmlns="http://www.w3.org/2000/svg" xmlns:xlink="http://www.w3.org/1999/xlink" width="30pt" height="30pt" viewBox="0 0 30 30" version="1.1">
<g id="surface876">
<path style=" stroke:none;fill-rule:nonzero;fill:rgb(0%,0%,0%);fill-opacity:1;" d="M 7.460938 14.410156 C 7.460938 14.21875 7.53125 14.050781 7.660156 13.910156 C 7.789063 13.769531 7.949219 13.699219 8.140625 13.699219 C 8.328125 13.699219 8.5 13.769531 8.628906 13.910156 C 8.761719 14.050781 8.828125 14.210938 8.828125 14.410156 C 8.828125 14.601563 8.761719 14.761719 8.628906 14.890625 C 8.5 15.019531 8.328125 15.089844 8.148438 15.089844 C 7.96875 15.089844 7.800781 15.019531 7.671875 14.890625 C 7.519531 14.75 7.460938 14.589844 7.460938 14.410156 Z M 9.441406 14.410156 C 9.441406 14.21875 9.511719 14.050781 9.640625 13.910156 C 9.769531 13.769531 9.929688 13.699219 10.121094 13.699219 L 13.351563 13.699219 L 11.070313 11.421875 C 10.929688 11.300781 10.859375 11.140625 10.859375 10.949219 C 10.859375 10.761719 10.929688 10.601563 11.070313 10.460938 C 11.210938 10.320313 11.371094 10.25 11.558594 10.25 C 11.75 10.25 11.910156 10.320313 12.050781 10.460938 L 14.320313 12.730469 L 14.320313 9.519531 C 14.320313 9.328125 14.390625 9.160156 14.53125 9.019531 C 14.671875 8.878906 14.828125 8.808594 15.03125 8.808594 C 15.21875 8.808594 15.378906 8.878906 15.511719 9.019531 C 15.640625 9.160156 15.710938 9.320313 15.710938 9.519531 L 15.710938 12.75 L 18 10.449219 C 18.140625 10.308594 18.300781 10.238281 18.480469 10.238281 C 18.660156 10.238281 18.828125 10.308594 18.96875 10.449219 C 19.089844 10.589844 19.148438 10.75 19.148438 10.941406 C 19.148438 11.128906 19.089844 11.289063 18.96875 11.410156 L 16.691406 13.691406 L 19.921875 13.691406 C 20.101563 13.691406 20.261719 13.761719 20.390625 13.898438 C 20.519531 14.039063 20.589844 14.199219 20.589844 14.398438 C 20.589844 14.578125 20.519531 14.738281 20.390625 14.871094 C 20.261719 15 20.101563 15.070313 19.921875 15.070313 L 16.691406 15.070313 L 18.980469 17.359375 C 19.101563 17.480469 19.160156 17.640625 19.160156 17.828125 C 19.160156 18.019531 19.101563 18.179688 18.980469 18.320313 C 18.839844 18.460938 18.671875 18.53125 18.488281 18.53125 C 18.308594 18.53125 18.140625 18.460938 18.011719 18.320313 L 15.71875 16.019531 L 15.71875 19.261719 C 15.71875 19.449219 15.648438 19.621094 15.519531 19.75 C 15.390625 19.878906 15.230469 19.949219 15.039063 19.949219 C 14.851563 19.949219 14.679688 19.878906 14.539063 19.75 C 14.398438 19.621094 14.328125 19.449219 14.328125 19.261719 L 14.328125 16.039063 L 12.058594 18.308594 C 11.921875 18.449219 11.761719 18.519531 11.570313 18.519531 C 11.378906 18.519531 11.21875 18.449219 11.078125 18.308594 C 10.941406 18.171875 10.871094 18.011719 10.871094 17.820313 C 10.871094 17.628906 10.941406 17.480469 11.078125 17.351563 L 13.378906 15.058594 L 10.140625 15.058594 C 9.949219 15.058594 9.789063 14.988281 9.660156 14.859375 C 9.5 14.75 9.441406 14.589844 9.441406 14.410156 Z M 9.449219 19.25 C 9.449219 19.070313 9.519531 18.898438 9.660156 18.769531 C 9.78125 18.628906 9.941406 18.558594 10.128906 18.558594 C 10.320313 18.558594 10.480469 18.628906 10.621094 18.769531 C 10.761719 18.910156 10.828125 19.070313 10.828125 19.25 C 10.828125 19.429688 10.761719 19.601563 10.621094 19.730469 C 10.480469 19.871094 10.320313 19.941406 10.128906 19.941406 C 9.941406 19.941406 9.78125 19.871094 9.660156 19.730469 C 9.519531 19.601563 9.449219 19.441406 9.449219 19.25 Z M 9.449219 9.539063 C 9.449219 9.359375 9.519531 9.191406 9.660156 9.058594 C 9.78125 8.921875 9.941406 8.851563 10.128906 8.851563 C 10.320313 8.851563 10.480469 8.921875 10.621094 9.058594 C 10.761719 9.199219 10.828125 9.359375 10.828125 9.539063 C 10.828125 9.71875 10.761719 9.890625 10.621094 10.03125 C 10.480469 10.171875 10.320313 10.238281 10.128906 10.238281 C 9.941406 10.238281 9.78125 10.171875 9.660156 10.03125 C 9.519531 9.890625 9.449219 9.71875 9.449219 9.539063 Z M 14.300781 21.25 C 14.300781 21.070313 14.371094 20.910156 14.511719 20.78125 C 14.648438 20.648438 14.808594 20.578125 15.011719 20.578125 C 15.199219 20.578125 15.359375 20.648438 15.488281 20.78125 C 15.621094 20.910156 15.691406 21.070313 15.691406 21.25 C 15.691406 21.441406 15.621094 21.609375 15.488281 21.738281 C 15.359375 21.871094 15.199219 21.941406 15.011719 21.941406 C 14.820313 21.941406 14.648438 21.871094 14.511719 21.738281 C 14.371094 21.609375 14.300781 21.449219 14.300781 21.25 Z M 14.300781 7.539063 C 14.300781 7.351563 14.371094 7.179688 14.511719 7.050781 C 14.648438 6.921875 14.808594 6.851563 15.011719 6.851563 C 15.199219 6.851563 15.359375 6.921875 15.488281 7.050781 C 15.621094 7.179688 15.691406 7.351563 15.691406 7.539063 C 15.691406 7.71875 15.621094 7.878906 15.488281 8.011719 C 15.359375 8.140625 15.199219 8.210938 15.011719 8.210938 C 14.820313 8.210938 14.648438 8.140625 14.511719 8.011719 C 14.371094 7.878906 14.300781 7.71875 14.300781 7.539063 Z M 19.171875 19.25 C 19.171875 19.070313 19.238281 18.898438 19.378906 18.769531 C 19.5 18.628906 19.660156 18.558594 19.851563 18.558594 C 20.039063 18.558594 20.199219 18.628906 20.339844 18.769531 C 20.480469 18.910156 20.550781 19.070313 20.550781 19.25 C 20.550781 19.429688 20.480469 19.601563 20.339844 19.730469 C 20.199219 19.871094 20.039063 19.941406 19.851563 19.941406 C 19.660156 19.941406 19.5 19.871094 19.378906 19.730469 C 19.238281 19.601563 19.171875 19.441406 19.171875 19.25 Z M 19.171875 9.539063 C 19.171875 9.359375 19.238281 9.191406 19.378906 9.058594 C 19.5 8.921875 19.660156 8.851563 19.851563 8.851563 C 20.039063 8.851563 20.199219 8.921875 20.339844 9.058594 C 20.480469 9.199219 20.550781 9.359375 20.550781 9.539063 C 20.550781 9.71875 20.480469 9.890625 20.339844 10.03125 C 20.199219 10.171875 20.039063 10.238281 19.851563 10.238281 C 19.660156 10.238281 19.5 10.171875 19.378906 10.03125 C 19.238281 9.890625 19.171875 9.71875 19.171875 9.539063 Z M 21.171875 14.410156 C 21.171875 14.21875 21.238281 14.050781 21.371094 13.910156 C 21.5 13.769531 21.671875 13.699219 21.859375 13.699219 C 22.039063 13.699219 22.199219 13.769531 22.328125 13.910156 C 22.460938 14.050781 22.53125 14.210938 22.53125 14.410156 C 22.53125 14.589844 22.460938 14.75 22.328125 14.878906 C 22.199219 15.011719 22.039063 15.078125 21.859375 15.078125 C 21.671875 15.078125 21.5 15.011719 21.371094 14.878906 C 21.238281 14.75 21.171875 14.589844 21.171875 14.410156 Z M 21.171875 14.410156 "/>
</g>
</svg>

<?xml version="1.0" encoding="utf-8"?>
<!-- Generator: Adobe Illustrator 22.0.1, SVG Export Plug-In . SVG Version: 6.00 Build 0)  -->
<svg version="1.1" id="Layer_1" xmlns="http://www.w3.org/2000/svg" xmlns:xlink="http://www.w3.org/1999/xlink" x="0px" y="0px"
	 viewBox="0 0 30 30" style="enable-background:new 0 0 30 30;" xml:space="preserve">
<path d="M7.46,14.41c0-0.19,0.07-0.36,0.2-0.5c0.13-0.14,0.29-0.21,0.48-0.21c0.19,0,0.36,0.07,0.49,0.21c0.13,0.14,0.2,0.3,0.2,0.5
	c0,0.19-0.07,0.35-0.2,0.48c-0.13,0.13-0.3,0.2-0.48,0.2s-0.35-0.07-0.48-0.2C7.52,14.75,7.46,14.59,7.46,14.41z M9.44,14.41
	c0-0.19,0.07-0.36,0.2-0.5c0.13-0.14,0.29-0.21,0.48-0.21h3.23l-2.28-2.28c-0.14-0.12-0.21-0.28-0.21-0.47
	c0-0.19,0.07-0.35,0.21-0.49c0.14-0.14,0.3-0.21,0.49-0.21s0.35,0.07,0.49,0.21l2.27,2.27V9.52c0-0.19,0.07-0.36,0.21-0.5
	s0.3-0.21,0.5-0.21c0.19,0,0.35,0.07,0.48,0.21c0.13,0.14,0.2,0.3,0.2,0.5v3.23l2.29-2.3c0.14-0.14,0.3-0.21,0.48-0.21
	c0.18,0,0.35,0.07,0.49,0.21c0.12,0.14,0.18,0.3,0.18,0.49c0,0.19-0.06,0.35-0.18,0.47l-2.28,2.28h3.23c0.18,0,0.34,0.07,0.47,0.21
	c0.13,0.14,0.2,0.3,0.2,0.5c0,0.18-0.07,0.34-0.2,0.47c-0.13,0.13-0.29,0.2-0.47,0.2h-3.23l2.29,2.29c0.12,0.12,0.18,0.28,0.18,0.47
	s-0.06,0.35-0.18,0.49c-0.14,0.14-0.31,0.21-0.49,0.21c-0.18,0-0.35-0.07-0.48-0.21l-2.29-2.3v3.24c0,0.19-0.07,0.36-0.2,0.49
	c-0.13,0.13-0.29,0.2-0.48,0.2c-0.19,0-0.36-0.07-0.5-0.2c-0.14-0.13-0.21-0.3-0.21-0.49v-3.22l-2.27,2.27
	c-0.14,0.14-0.3,0.21-0.49,0.21s-0.35-0.07-0.49-0.21s-0.21-0.3-0.21-0.49s0.07-0.34,0.21-0.47l2.3-2.29h-3.24
	c-0.19,0-0.35-0.07-0.48-0.2C9.5,14.75,9.44,14.59,9.44,14.41z M9.45,19.25c0-0.18,0.07-0.35,0.21-0.48
	c0.12-0.14,0.28-0.21,0.47-0.21c0.19,0,0.35,0.07,0.49,0.21c0.14,0.14,0.21,0.3,0.21,0.48c0,0.18-0.07,0.35-0.21,0.48
	c-0.14,0.14-0.3,0.21-0.49,0.21c-0.19,0-0.35-0.07-0.47-0.21C9.52,19.6,9.45,19.44,9.45,19.25z M9.45,9.54
	c0-0.18,0.07-0.35,0.21-0.48c0.12-0.14,0.28-0.21,0.47-0.21c0.19,0,0.35,0.07,0.49,0.21c0.14,0.14,0.21,0.3,0.21,0.48
	s-0.07,0.35-0.21,0.49c-0.14,0.14-0.3,0.21-0.49,0.21c-0.19,0-0.35-0.07-0.47-0.21C9.52,9.89,9.45,9.72,9.45,9.54z M14.3,21.25
	c0-0.18,0.07-0.34,0.21-0.47c0.14-0.13,0.3-0.2,0.5-0.2c0.19,0,0.35,0.07,0.48,0.2c0.13,0.13,0.2,0.29,0.2,0.47
	c0,0.19-0.07,0.36-0.2,0.49c-0.13,0.13-0.29,0.2-0.48,0.2c-0.19,0-0.36-0.07-0.5-0.2C14.37,21.61,14.3,21.45,14.3,21.25z M14.3,7.54
	c0-0.19,0.07-0.36,0.21-0.49s0.3-0.2,0.5-0.2c0.19,0,0.35,0.07,0.48,0.2c0.13,0.13,0.2,0.3,0.2,0.49c0,0.18-0.07,0.34-0.2,0.47
	c-0.13,0.13-0.29,0.2-0.48,0.2c-0.19,0-0.36-0.07-0.5-0.2C14.37,7.88,14.3,7.72,14.3,7.54z M19.17,19.25c0-0.18,0.07-0.35,0.21-0.48
	c0.12-0.14,0.28-0.21,0.47-0.21c0.19,0,0.35,0.07,0.49,0.21c0.14,0.14,0.21,0.3,0.21,0.48c0,0.18-0.07,0.35-0.21,0.48
	c-0.14,0.14-0.3,0.21-0.49,0.21c-0.19,0-0.35-0.07-0.47-0.21C19.24,19.6,19.17,19.44,19.17,19.25z M19.17,9.54
	c0-0.18,0.07-0.35,0.21-0.48c0.12-0.14,0.28-0.21,0.47-0.21c0.19,0,0.35,0.07,0.49,0.21c0.14,0.14,0.21,0.3,0.21,0.48
	s-0.07,0.35-0.21,0.49c-0.14,0.14-0.3,0.21-0.49,0.21c-0.19,0-0.35-0.07-0.47-0.21C19.24,9.89,19.17,9.72,19.17,9.54z M21.17,14.41
	c0-0.19,0.07-0.36,0.2-0.5c0.13-0.14,0.3-0.21,0.49-0.21c0.18,0,0.34,0.07,0.47,0.21c0.13,0.14,0.2,0.3,0.2,0.5
	c0,0.18-0.07,0.34-0.2,0.47c-0.13,0.13-0.29,0.2-0.47,0.2c-0.19,0-0.36-0.07-0.49-0.2C21.24,14.75,21.17,14.59,21.17,14.41z"/>
</svg>
